X:1
T:Dr. Guthrie's (Junr.) Strathspey
C:William Christie (1778-1849)
N:Christie was a dancing master, fiddler
N:and composer from Cuminestown, Aberdeenshire.
M:C
L:1/16
R:Strathspey
B:Christie - Collection of Strathspeys, Reels, Hornpipes,
B:Waltzes &c. (Edinburgh, 1820, p. 22)
Z:AK/Fiddler’s Companion
K:Amin
cd|e3A (ed).c.B {B}A4 A3B|G3cG3e dG3Bd3|{cd}e3A (ed).c.B {B}A4 A3B|
~G3g (Bc).d.B {B}A4A2:|B2|Gg3^fa3 {f}g4 Tg3d|eg3 db3 Ta3ga3b|
Gd3 b3g {gb}a4 a3b|~g3d (Bc).d.B. {B}A3 A3B|G3g ^fgaf ~g4 (.g.d)|
eg3 db3 Ta3ga2b2|gd3 bg3 aA3 a2^f2|~g3d (Bc).d.B {B}A4 A2||

